cssgg/bitbucket.svg

<svg
  width="24"
  height="24"
  viewBox="0 0 24 24"
  fill="none"
  xmlns="http://www.w3.org/2000/svg"
>
  <path
    fill-rule="evenodd"
    clip-rule="evenodd"
    d="M4.5831 4.63507C4.03082 4.63507 3.66768 5.07472 3.77202 5.61706L6.22804 18.383C6.33238 18.9253 6.86468 19.3649 7.41696 19.3649H16.583C17.1353 19.3649 17.6676 18.9253 17.7719 18.383L20.2279 5.61706C20.3323 5.07472 19.9691 4.63507 19.4168 4.63507H4.5831ZM13.5449 14.3649L14.4549 9.63507H9.54504L10.455 14.3649H13.5449Z"
    fill="currentColor"
  />
</svg>

<svg viewBox="0 0 24 24" xmlns="http://www.w3.org/2000/svg"><path fill-rule="evenodd" d="M4.58 4.63c-.56 0-.92.43-.82.98l2.45 12.76c.1.54.63.98 1.18.98h9.16c.55 0 1.08-.44 1.18-.99l2.45-12.77c.1-.55-.26-.99-.82-.99H4.52Zm8.96 9.72l.91-4.73H9.54l.9 4.72h3.08Z"/></svg>
